assets/img/programaria.svg

<?xml version="1.0" encoding="UTF-8"?>
<svg width="109px" height="126px" viewBox="0 0 109 126" version="1.1" xmlns="http://www.w3.org/2000/svg" xmlns:xlink="http://www.w3.org/1999/xlink">
    <!-- Generator: Sketch 52.2 (67145) - http://www.bohemiancoding.com/sketch -->
    <title>programaria-logo-salmao-vert-positivo</title>
    <desc>Created with Sketch.</desc>
    <g id="wireframe" stroke="none" stroke-width="1" fill="none" fill-rule="evenodd">
        <g id="Desktop-HD-Copy-2" transform="translate(-583.000000, -3047.000000)">
            <g id="logos" transform="translate(583.000000, 3047.000000)">
                <g id="programaria-logo-salmao-vert-positivo">
                    <g id="Group" transform="translate(24.000000, 62.000000)" fill="#FF4747">
                        <path d="M7.06984615,5.84069565 L7.05669231,11.389913 C7.05046154,13.5255652 6.36092308,15.1088696 4.74576923,15.8977391 C6.35746154,16.7283478 7.04076923,18.2810435 7.03592308,20.4194783 L7.02207692,25.9673043 C7.01515385,28.3812174 7.938,29.5554783 10.6490769,29.5638261 C10.6490769,29.5638261 10.8200769,29.9067826 10.8173077,30.4925217 C10.8152308,31.042087 10.6449231,31.4608696 10.6449231,31.4608696 C6.14976923,31.4469565 4.40446154,29.4462609 4.41138462,25.9645217 L4.428,20.4125217 C4.43076923,18.0389565 3.50930769,16.8285217 0.800307692,16.8215652 C0.800307692,16.8215652 0.627923077,16.477913 0.629307692,15.8935652 C0.632076923,15.3377391 0.805846154,14.9245217 0.805846154,14.9245217 C3.51553846,14.9342609 4.44253846,13.7634783 4.44807692,11.3836522 L4.46261538,5.83304348 C4.46884615,2.35269565 6.22523077,0.356173913 10.7196923,0.369391304 C10.7196923,0.369391304 10.8886154,0.747826087 10.8858462,1.33634783 C10.8844615,1.92278261 10.7141538,2.26504348 10.7141538,2.26504348 C8.00307692,2.25391304 7.07538462,3.4253913 7.06984615,5.84069565" id="Path"></path>
                        <path d="M18.0221538,5.75304348 C18.0221538,5.75304348 18.8466923,5.54365217 19.7522308,5.54782609 C20.6162308,5.54782609 21.4393846,5.76 21.4393846,5.76 L21.4352308,7.41565217 C21.4352308,7.41565217 23.6616923,5.43234783 27.7373077,5.44486957 C30.2898462,5.45252174 31.8918462,6.24208696 32.6284615,7.73147826 C32.6284615,7.73147826 35.1865385,5.46365217 39.7142308,5.47130435 C43.8722308,5.48243478 45.4285385,7.72034783 45.4188462,11.6890435 L45.3835385,26.2490435 C45.3835385,26.2490435 44.5624615,26.4528696 43.6527692,26.4486957 C42.7929231,26.4445217 41.9663077,26.2406957 41.9663077,26.2406957 L42.0043846,11.6813913 C42.0085385,8.99478261 41.1888462,7.75026087 38.5968462,7.74747826 C35.1782308,7.73495652 33.696,9.38643478 33.4052308,9.75582609 L33.3650769,26.2177391 C33.3650769,26.2177391 32.5426154,26.4215652 31.6772308,26.4173913 C30.8132308,26.4173913 29.9900769,26.2093913 29.9900769,26.2093913 L30.0246923,11.6493913 C30.0316154,8.96208696 29.2119231,7.72243478 26.5783846,7.71478261 C22.8724615,7.70782609 21.4283077,9.7293913 21.4283077,9.7293913 L21.3881538,26.1913043 C21.3881538,26.1913043 20.5234615,26.3895652 19.6996154,26.3895652 C18.7954615,26.3867826 17.9695385,26.1815652 17.9695385,26.1815652 L18.0221538,5.75304348 Z" id="Path"></path>
                        <path d="M52.5143077,1.43443478 C52.5143077,0.848695652 52.6873846,0.468173913 52.6873846,0.468173913 C57.1804615,0.479304348 58.9250769,2.48417391 58.9153846,5.96452174 L58.9043077,11.5151304 C58.8973846,13.8942609 59.8202308,15.0643478 62.5264615,15.0713043 C62.5264615,15.0713043 62.6981538,15.4838261 62.6981538,16.0382609 C62.6981538,16.624 62.5209231,16.9676522 62.5209231,16.9676522 C59.8153846,16.962087 58.8863077,18.1690435 58.8800769,20.5453913 L58.8655385,26.0946087 C58.8586154,29.5742609 57.1008462,31.5693913 52.6112308,31.5617391 C52.6112308,31.5617391 52.4388462,31.1443478 52.4388462,30.594087 C52.4436923,30.0083478 52.6160769,29.661913 52.6160769,29.661913 C55.323,29.666087 56.2506923,28.4987826 56.2603846,26.0848696 L56.2721538,20.5349565 C56.2749231,18.3986087 56.9665385,16.850087 58.5816923,16.0271304 C56.9713846,15.229913 56.2887692,13.6431304 56.2943077,11.5067826 L56.3060769,5.95756522 C56.3164615,3.54156522 55.3894615,2.36730435 52.6818462,2.36382609 C52.6818462,2.3666087 52.5101538,2.01878261 52.5143077,1.43443478" id="Path"></path>
                    </g>
                    <path d="M12.6568957,6.53545484 C12.6643473,3.61916864 11.8209607,2.26251561 9.00086563,2.25561153 C4.93431966,2.24387458 3.40335282,4.25020216 3.40335282,4.25020216 L3.37896574,14.3923054 C3.37286897,17.3092821 4.65590047,18.6617926 8.48060788,18.6735296 C11.6637995,18.6804337 12.6311538,17.3279231 12.6392828,14.4150889 L12.6568957,6.53545484 Z M3.40877217,1.95321253 C3.40877217,1.95321253 5.74451272,-0.0110001192 10.0962521,4.64194051e-05 C14.4039592,0.00764091472 16.0094421,2.39507408 15.9999583,6.54235893 L15.9809905,14.4226834 C15.9715067,18.5658258 14.0727013,20.9435933 9.03880109,20.9318563 C4.72838429,20.9201194 3.4846431,19.2728043 3.3667722,19.0705146 L3.34441737,28.8004439 C3.34441737,28.8004439 2.53286947,29.0027336 1.68880545,28.999972 C0.804096298,28.999972 0,28.7893973 0,28.7893973 L0.0677418953,0.301064597 C0.0677418953,0.301064597 0.871838193,0.0994652671 1.75925702,0.103607719 C2.60264362,0.103607719 3.41283669,0.31003991 3.41283669,0.31003991 L3.40877217,1.95321253 Z" id="Shape" fill="#0F2E45" fill-rule="nonzero"></path>
                    <path d="M28.4733487,2.80328654 C28.4733487,2.80328654 30.9592789,-0.0118172013 35.8365696,3.73351829e-05 C35.8365696,3.73351829e-05 36.0020665,0.50211182 35.9999804,1.20571343 C35.9978943,1.87026479 35.8323975,2.36815532 35.8323975,2.36815532 C30.6630533,2.35211683 28.4656996,6.11907012 28.4656996,6.11907012 L28.4309314,20.7956836 C28.4309314,20.7956836 27.5610296,21 26.7335452,21 C25.8240076,20.9951187 25,20.7873157 25,20.7873157 L25.0493709,0.306163306 C25.0493709,0.306163306 25.8733786,0.101846884 26.7836115,0.101846884 C27.6514271,0.104636186 28.4775208,0.313136563 28.4775208,0.313136563 L28.4733487,2.80328654 Z" id="Path" fill="#0F2E45" fill-rule="nonzero"></path>
                    <path d="M45.453647,14.4391199 C45.4438456,17.3614222 46.7320383,18.7266409 50.4803991,18.73426 C54.2238592,18.7411866 55.5176528,17.3891283 55.5239537,14.466826 L55.5449569,6.55673084 C55.5491575,3.63581391 54.2665656,2.27475112 50.5182048,2.26366868 C46.7712442,2.25604949 45.4788508,3.60880045 45.4718498,6.5338733 L45.453647,14.4391199 Z M42.018233,6.52556147 C42.0273344,2.37033721 44.4076905,-0.0158517501 50.5259059,7.9264739e-05 C56.6462217,0.0160102796 59.0090752,2.40981842 58.9999738,6.56504268 L58.9817711,14.4709819 C58.9705694,18.6303621 56.5944139,21.0151658 50.4754984,20.9999274 C44.3558828,20.9853817 41.9902289,18.5922662 42.0000303,14.4321934 L42.018233,6.52556147 Z" id="Shape" fill="#0F2E45" fill-rule="nonzero"></path>
                    <path d="M3.34556516,48.3268789 C3.33742683,51.2276915 4.34318956,52.5774658 7.48933476,52.5850218 C11.3191002,52.5966992 12.6137739,51.2510464 12.6191994,48.3495469 L12.6436144,38.2623025 C12.6436144,38.2623025 11.11632,36.2579048 7.04308265,36.2503488 C4.2231491,36.2427929 3.37201476,37.5877588 3.36455462,40.4865107 L3.34556516,48.3268789 Z M12.6083483,53.0067833 C12.4883079,53.2094212 11.1949906,54.8394539 6.91965121,54.8325848 C1.87863004,54.8209074 -0.00878580249,52.4442056 3.07285617e-05,48.3200098 L0.0196983747,40.4789547 C0.0305494899,36.3533851 1.64804384,33.9890476 5.9620403,34.0000381 C10.3160503,34.0117156 12.6497182,35.9776464 12.6497182,35.9776464 L12.6537874,34.3428053 C12.6537874,34.3428053 13.4208256,34.1401674 14.307226,34.1401674 C15.1936265,34.1442888 16,34.3496743 16,34.3496743 L15.9471008,56.5251262 C15.9362497,60.6520697 13.593087,63.0157202 7.26078315,62.9999213 C3.26960736,62.9882439 0.815220753,62.0416846 0.815220753,62.0416846 C0.815220753,62.0416846 0.612440539,61.5546668 0.616509707,60.9021042 C0.616509707,60.2042056 0.818611727,59.7563416 0.818611727,59.7563416 C0.818611727,59.7563416 3.39778616,60.7420546 7.26824329,60.7530451 C11.3374115,60.7599142 12.593428,59.4176959 12.60021,56.5168833 L12.6083483,53.0067833 Z" id="Shape" fill="#0F2E45" fill-rule="nonzero"></path>
                    <path d="M28.4752512,36.7993778 C28.4752512,36.7993778 30.9605529,33.9888748 35.8407816,34.0000331 C35.8407816,34.0000331 36.0020655,34.4979734 35.9999799,35.2044348 C35.9978944,35.8662629 35.8324393,36.3635058 35.8324393,36.3635058 C30.6678782,36.35165 28.4676041,40.1196768 28.4676041,40.1196768 L28.4328447,54.7914788 C28.4328447,54.7914788 27.5631629,55 26.7358876,55 C25.8237993,54.9972104 25,54.7845049 25,54.7845049 L25.0500536,34.3054923 C25.0500536,34.3054923 25.8731577,34.0969711 26.7859413,34.1018528 C27.6549279,34.1046424 28.4808127,34.3131636 28.4808127,34.3131636 L28.4752512,36.7993778 Z" id="Path" fill="#0F2E45" fill-rule="nonzero"></path>
                    <path d="M49.8960596,45.3677038 C46.4824463,45.7327927 45.3801337,46.8827879 45.3767146,48.8190752 L45.3767146,49.4363317 C45.3685088,51.6580394 46.1788316,52.7346013 48.8210996,52.7387579 C53.0101611,52.7505349 54.6396964,50.7359649 54.6396964,50.7359649 L54.6547404,44.8044832 L49.8960596,45.3677038 Z M54.6349097,53.0401121 C54.6349097,53.0401121 52.1888972,55.0110377 47.5943323,54.9999534 C43.5331446,54.992333 41.9925054,52.9708352 42.0000274,49.4245546 L42.0000274,48.8072981 C42.0096008,45.5145707 44.08772,43.7487044 49.3319107,43.1847911 L54.6581595,42.6215705 L54.6663653,40.3167306 C54.6718358,37.5934586 53.5387515,36.2758134 50.0827415,36.268193 C46.7060544,36.2598797 45.606477,37.5331878 45.6010065,40.2100443 L45.598955,40.7046808 C45.598955,40.7046808 44.8248744,40.9069691 44.0131839,40.9069691 C43.1590968,40.9035053 42.3877515,40.6956748 42.3877515,40.6956748 L42.3877515,40.2010383 C42.3993764,36.2474099 44.1930278,33.9855216 50.0861606,34.0000697 C55.9006546,34.0153107 58.0088616,36.2855122 57.999972,40.324351 L57.9637297,54.6965209 C57.9637297,54.6965209 57.1513554,54.899502 56.2959006,54.899502 C55.4035198,54.8946526 54.6314906,54.6875149 54.6314906,54.6875149 L54.6349097,53.0401121 Z" id="Shape" fill="#0F2E45" fill-rule="nonzero"></path>
                    <path d="M100.898453,79.3673319 C97.4877272,79.727559 96.3806773,80.8816709 96.3779421,82.8151202 L96.3779421,83.4337409 C96.3724719,85.6609138 97.1807072,86.7312037 99.823541,86.7388239 C104.011732,86.7506005 105.643929,84.7374856 105.643929,84.7374856 L105.658289,78.8006671 L100.898453,79.3673319 Z M105.637092,87.0367039 C105.637092,87.0367039 103.190504,89.0124106 98.5988798,88.9999412 C94.5351382,88.9888573 92.9911489,86.9646585 93.0000381,83.4240425 L93.0000381,82.8054218 C93.0096111,79.507959 95.0903727,77.7490813 100.336381,77.1803382 L105.661024,76.6206008 L105.666494,74.3123769 C105.671965,71.5926628 104.537563,70.2757559 101.083075,70.2667503 C97.7092739,70.2535881 96.6076943,71.5317013 96.6049592,74.2077725 L96.602224,74.7030847 C96.602224,74.7030847 95.8240753,74.9067515 95.01584,74.9067515 C94.1645261,74.9019023 93.3932152,74.6947717 93.3932152,74.6947717 L93.3945828,74.2001523 C93.4041558,70.2466607 95.1943082,67.9834651 101.089913,68.000091 C106.902096,68.0125604 109.011577,70.2854544 108.999952,74.3199971 L108.966447,88.694441 C108.966447,88.694441 108.154109,88.8974151 107.300743,88.8974151 C106.403616,88.8939513 105.633673,88.6833571 105.633673,88.6833571 L105.637092,87.0367039 Z" id="Shape" fill="#0F2E45" fill-rule="nonzero"></path>
                    <path d="M45.4768614,106.805374 C45.4768614,106.805374 47.9609298,103.98749 52.8379909,104.000042 C52.8379909,104.000042 53.002066,104.50072 52.9999803,105.205714 C52.9999803,105.870263 52.8324291,106.367455 52.8324291,106.367455 C47.6682366,106.352114 45.4699091,110.12045 45.4699091,110.12045 L45.4351474,124.795622 C45.4351474,124.795622 44.5647154,125.004122 43.7373879,124.999938 C42.828718,124.995057 42,124.786557 42,124.786557 L42.0479711,104.306864 C42.0479711,104.306864 42.87947,104.099062 43.7874447,104.103943 C44.65301,104.103943 45.4824233,104.314535 45.4824233,104.314535 L45.4768614,106.805374 Z" id="Path" fill="#0F2E45" fill-rule="nonzero"></path>
                    <path d="M62.9398332,124.798299 C62.9398332,124.798299 62.1916203,125.004095 61.4874901,124.999938 C60.7059174,124.999938 60,124.793449 60,124.793449 L60.0416998,104.437648 C60.0416998,104.437648 60.7494043,104.239474 61.5285941,104.239474 C62.2732327,104.242939 62.9803415,104.447349 62.9803415,104.447349 L62.9398332,124.798299 Z M62.9898729,100.535144 C62.9898729,100.535144 62.2464257,100.738168 61.5375298,100.738168 C60.75834,100.738168 60.0500397,100.527522 60.0500397,100.527522 L60.0607625,96.205803 C60.0607625,96.205803 60.768467,95.9986211 61.5476569,96.0000069 C62.2911041,96.0000069 63,96.2127322 63,96.2127322 L62.9898729,100.535144 Z" id="Shape" fill="#0F2E45" fill-rule="nonzero"></path>
                    <path d="M79.8980747,116.370542 C76.480175,116.731498 75.3810025,117.881568 75.3755306,119.817981 L75.3727947,120.436663 C75.3700587,122.661286 76.1792193,123.73099 78.819422,123.739997 C83.0095468,123.752467 84.6422317,121.735688 84.6422317,121.735688 L84.6565955,115.803821 L79.8980747,116.370542 Z M84.6367598,124.039292 C84.6367598,124.039292 82.1921783,126.011038 77.5971312,125.999953 C73.5301247,125.99164 71.9911464,123.966547 72.0000383,120.426271 L72.0000383,119.809667 C72.0082462,116.51534 74.0855248,114.746588 79.3330987,114.184716 L84.6627515,113.620073 L84.6682234,111.314391 C84.6771153,108.595792 83.5389553,107.273904 80.0807002,107.26559 C76.7058918,107.257277 75.6032994,108.532053 75.5978275,111.207698 L75.5978275,111.703059 C75.5978275,111.703059 74.8242344,111.910903 74.0137058,111.906054 C73.1587179,111.906054 72.3864928,111.694053 72.3864928,111.694053 L72.3878608,111.198691 C72.3988047,107.244806 74.1929113,104.983464 80.0868561,105.000091 C85.9048779,105.013947 88.0129361,107.284296 87.9999403,111.323398 L87.9684768,125.696501 C87.9684768,125.696501 87.1538443,125.898803 86.3002243,125.898803 C85.402829,125.893953 84.6340239,125.686802 84.6340239,125.686802 L84.6367598,124.039292 Z" id="Shape" fill="#0F2E45" fill-rule="nonzero"></path>
                </g>
            </g>
        </g>
    </g>
</svg>

<svg width="109" height="126" xmlns="http://www.w3.org/2000/svg"><g fill="none" fill-rule="evenodd"><g fill="#FF4747"><path d="M31.07 67.84l-.013 5.55c-.007 2.136-.696 3.719-2.311 4.508 1.611.83 2.295 2.383 2.29 4.521l-.014 5.548c-.007 2.414.916 3.588 3.627 3.597 0 0 .171.343.168.929-.002.55-.172.968-.172.968-4.495-.014-6.24-2.015-6.234-5.496l.017-5.552c.003-2.374-.919-3.584-3.628-3.591 0 0-.172-.344-.17-.928.002-.556.176-.97.176-.97 2.71.01 3.637-1.16 3.642-3.54l.015-5.551c.006-3.48 1.762-5.477 6.257-5.464 0 0 .169.379.166.967-.002.587-.172.929-.172.929-2.71-.011-3.639 1.16-3.644 3.576M42.022 67.753s.825-.21 1.73-.205c.864 0 1.687.212 1.687.212l-.004 1.656s2.227-1.984 6.302-1.971c2.553.008 4.155.797 4.891 2.286 0 0 2.559-2.267 7.086-2.26 4.158.011 5.715 2.25 5.705 6.218l-.035 14.56s-.822.204-1.731.2a8.192 8.192 0 0 1-1.687-.208l.038-14.56c.005-2.686-.815-3.93-3.407-3.934-3.419-.012-4.901 1.64-5.192 2.009l-.04 16.462s-.822.204-1.688.2c-.864 0-1.687-.209-1.687-.209l.035-14.56c.007-2.687-.813-3.927-3.447-3.934-3.706-.007-5.15 2.014-5.15 2.014l-.04 16.462s-.865.199-1.688.199c-.905-.003-1.73-.208-1.73-.208l.052-20.429zM76.514 63.434c0-.585.173-.966.173-.966 4.493.011 6.238 2.016 6.228 5.497l-.01 5.55c-.008 2.38.915 3.55 3.621 3.556 0 0 .172.413.172.967 0 .586-.177.93-.177.93-2.706-.006-3.635 1.201-3.64 3.577l-.015 5.55c-.007 3.48-1.765 5.474-6.255 5.467 0 0-.172-.418-.172-.968.005-.586.177-.932.177-.932 2.707.004 3.635-1.163 3.644-3.577l.012-5.55c.003-2.136.695-3.685 2.31-4.508-1.61-.797-2.293-2.384-2.288-4.52l.012-5.55c.01-2.415-.917-3.59-3.624-3.593 0 .003-.172-.345-.168-.93"/></g><path d="M12.657 6.535C12.664 3.62 11.82 2.263 9 2.255 4.934 2.245 3.403 4.25 3.403 4.25L3.38 14.392c-.006 2.917 1.277 4.27 5.102 4.282 3.183.006 4.15-1.346 4.158-4.259l.018-7.88zM3.409 1.953S5.745-.01 10.096 0C14.404.008 16.01 2.395 16 6.542l-.019 7.88c-.01 4.144-1.908 6.522-6.942 6.51-4.31-.012-5.554-1.66-5.672-1.861l-.023 9.73s-.811.202-1.655.199C.804 29 0 28.79 0 28.79L.068.3S.872.1 1.759.104c.844 0 1.654.206 1.654.206l-.004 1.643zM28.473 2.803S30.96-.012 35.837 0c0 0 .165.502.163 1.206-.002.664-.168 1.162-.168 1.162-5.169-.016-7.366 3.751-7.366 3.751l-.035 14.677s-.87.204-1.697.204c-.91-.005-1.734-.213-1.734-.213l.05-20.48s.823-.205 1.734-.205c.867.003 1.694.211 1.694.211l-.005 2.49zM45.454 14.44c-.01 2.921 1.278 4.287 5.026 4.294 3.744.007 5.038-1.345 5.044-4.267l.021-7.91c.004-2.921-1.278-4.282-5.027-4.293-3.747-.008-5.04 1.345-5.046 4.27l-.018 7.905zm-3.436-7.914c.01-4.156 2.39-6.542 8.508-6.526 6.12.016 8.483 2.41 8.474 6.565l-.018 7.906c-.011 4.16-2.388 6.544-8.507 6.529-6.12-.015-8.485-2.408-8.475-6.568l.018-7.906zM3.346 48.327c-.009 2.9.997 4.25 4.143 4.258 3.83.012 5.125-1.334 5.13-4.235l.025-10.088s-1.528-2.004-5.6-2.012c-2.82-.007-3.672 1.338-3.68 4.237l-.018 7.84zm9.262 4.68c-.12.202-1.413 1.832-5.688 1.826C1.879 54.82-.01 52.444 0 48.32l.02-7.841c.01-4.126 1.628-6.49 5.942-6.479 4.354.012 6.688 1.978 6.688 1.978l.004-1.635s.767-.203 1.653-.203c.887.004 1.693.21 1.693.21l-.053 22.175c-.01 4.127-2.354 6.49-8.686 6.475-3.991-.012-6.446-.958-6.446-.958s-.203-.487-.198-1.14c0-.698.202-1.146.202-1.146s2.579.986 6.45.997c4.068.007 5.324-1.335 5.331-4.236l.008-3.51zM28.475 36.8s2.486-2.811 7.366-2.8c0 0 .161.498.159 1.204a4.091 4.091 0 0 1-.168 1.16c-5.164-.012-7.364 3.756-7.364 3.756l-.035 14.671s-.87.209-1.697.209c-.912-.003-1.736-.215-1.736-.215l.05-20.48s.823-.208 1.736-.203a7.978 7.978 0 0 1 1.695.211l-.006 2.486zM49.896 45.368c-3.414.365-4.516 1.515-4.52 3.451v.617c-.007 2.222.803 3.299 3.445 3.303 4.19.012 5.819-2.003 5.819-2.003l.015-5.932-4.759.564zm4.739 7.672s-2.446 1.971-7.04 1.96c-4.062-.008-5.602-2.03-5.595-5.575v-.618c.01-3.292 2.088-5.058 7.332-5.622l5.326-.563.008-2.305c.006-2.724-1.127-4.041-4.583-4.049-3.377-.008-4.477 1.265-4.482 3.942l-.002.495s-.774.202-1.586.202c-.854-.003-1.625-.211-1.625-.211V40.2c.011-3.954 1.805-6.215 7.698-6.2 5.815.014 7.923 2.285 7.914 6.323l-.036 14.373s-.813.203-1.668.203c-.892-.005-1.665-.212-1.665-.212l.004-1.648zM100.898 79.367c-3.41.36-4.517 1.515-4.52 3.448v.619c-.006 2.227.803 3.297 3.446 3.305 4.188.012 5.82-2.002 5.82-2.002l.014-5.936-4.76.566zm4.74 7.67s-2.447 1.975-7.04 1.963c-4.063-.011-5.607-2.035-5.598-5.576v-.619c.01-3.297 2.09-5.056 7.336-5.625l5.325-.56.005-2.308c.006-2.72-1.128-4.036-4.583-4.045-3.374-.013-4.475 1.265-4.478 3.94l-.003.496s-.778.204-1.586.204a7.221 7.221 0 0 1-1.623-.212l.002-.495c.01-3.953 1.8-6.217 7.695-6.2 5.812.013 7.922 2.285 7.91 6.32l-.034 14.374s-.812.203-1.665.203c-.897-.003-1.667-.214-1.667-.214l.003-1.646zM45.477 106.805s2.484-2.818 7.361-2.805c0 0 .164.5.162 1.206 0 .664-.168 1.161-.168 1.161-5.164-.015-7.362 3.753-7.362 3.753l-.035 14.676s-.87.208-1.698.204c-.908-.005-1.737-.213-1.737-.213l.048-20.48s.831-.208 1.74-.203c.865 0 1.694.21 1.694.21l-.005 2.491zM62.94 124.798s-.748.206-1.453.202c-.781 0-1.487-.207-1.487-.207l.042-20.355s.707-.199 1.487-.199c.744.004 1.451.208 1.451.208l-.04 20.351zm.05-24.263s-.744.203-1.452.203c-.78 0-1.488-.21-1.488-.21l.01-4.322s.708-.207 1.488-.206a5.75 5.75 0 0 1 1.452.213l-.01 4.322zM79.898 116.37c-3.418.361-4.517 1.512-4.522 3.448l-.003.619c-.003 2.224.806 3.294 3.446 3.303 4.19.012 5.823-2.004 5.823-2.004l.015-5.932-4.759.567zm4.739 7.67s-2.445 1.971-7.04 1.96c-4.067-.008-5.606-2.033-5.597-5.574v-.616c.008-3.295 2.086-5.063 7.333-5.625l5.33-.565.005-2.306c.01-2.718-1.129-4.04-4.587-4.048-3.375-.009-4.478 1.266-4.483 3.942v.495s-.774.208-1.584.203c-.855 0-1.628-.212-1.628-.212l.002-.495c.01-3.954 1.805-6.216 7.699-6.199 5.818.014 7.926 2.284 7.913 6.323l-.032 14.374s-.814.202-1.668.202c-.897-.005-1.666-.212-1.666-.212l.003-1.648z" fill="#0F2E45" fill-rule="nonzero"/></g></svg>
